app/dist/common/images/perella-weinberg-partners.svg

<svg height="18" viewBox="0 0 18 18" width="18" xmlns="http://www.w3.org/2000/svg"><path d="m0 0h18v18h-18z" fill="#f0f3fa"/><g fill="#615472"><path d="m5 8.5c0 1.3-1.22 1.56-2 1.49.7-.11 1.02-.7 1.02-1.49 0-.8-.31-1.38-1.02-1.49.78-.07 2 .22 2 1.49z"/><path d="m2 7h1v4h-1zm5.11 0h-1.11l1.86 4 .54-1.19zm2.4 0h-1.11l1.86 4 .54-1.19zm2.49 0h-1.2l.58 1zm4 1.5c0 1.3-1.22 1.56-2 1.49.7-.11 1.02-.7 1.02-1.49 0-.8-.31-1.38-1.02-1.49.78-.07 2 .22 2 1.49zm-3-1.5h1v4h-1z"/></g></svg>

<!-- by TradingView --><svg width="18" height="18" viewBox="0 0 18 18" xmlns="http://www.w3.org/2000/svg"><path fill="#F0F3FA" d="M0 0h18v18H0z"/><path d="M5 8.5c0 1.3-1.22 1.56-2 1.49.7-.11 1.02-.7 1.02-1.49 0-.8-.31-1.38-1.02-1.49.78-.07 2 .22 2 1.49Z" fill="#615472"/><path fill="#615472" d="M2 7h1v4H2zM7.11 7H6l1.86 4 .54-1.19L7.11 7ZM9.51 7H8.4l1.86 4 .54-1.19L9.51 7ZM12 7h-1.2l.58 1L12 7ZM16 8.5c0 1.3-1.22 1.56-2 1.49.7-.11 1.02-.7 1.02-1.49 0-.8-.31-1.38-1.02-1.49.78-.07 2 .22 2 1.49ZM13 7h1v4h-1z"/></svg>
